apps/scalable/deepin-editor.svg

<svg xmlns="http://www.w3.org/2000/svg" style="isolation:isolate" width="256" height="256"><defs><filter id="a" width="270.648" height="254.338" x="-7.32" y="2.95" filterUnits="userSpaceOnUse"><feGaussianBlur xmlns="http://www.w3.org/2000/svg" in="SourceGraphic" stdDeviation="4.294"/><feOffset xmlns="http://www.w3.org/2000/svg" dy="4" result="pf_100_offsetBlur"/><feFlood xmlns="http://www.w3.org/2000/svg" flood-opacity=".4"/><feComposite xmlns="http://www.w3.org/2000/svg" in2="pf_100_offsetBlur" operator="in" result="pf_100_dropShadow"/><feBlend xmlns="http://www.w3.org/2000/svg" in="SourceGraphic" in2="pf_100_dropShadow"/></filter></defs><path fill="#ECECEC" d="M165.685 11.947c74.055 0 84.639 10.557 84.639 84.544v59.251c0 73.986-10.584 84.543-84.639 84.543h-75.37c-74.055 0-84.639-10.557-84.639-84.543V96.491c0-73.987 10.584-84.544 84.639-84.544h75.37z" filter="url(#a)"/><path fill="#CDCDCD" d="M47.367 46.408v4.078h163.099v-4.078H47.367zm0 12.233v4.077h163.099v-4.077H47.367zm0 12.232v4.078h163.099v-4.078H47.367zm0 12.233v4.077h163.099v-4.077H47.367zm0 12.233v4.077h163.099v-4.077H47.367zm0 12.232v4.077h163.099v-4.077H47.367zm0 12.232v4.078h163.099v-4.078H47.367zm0 12.232v4.078h163.099v-4.078H47.367zm0 12.233v4.078h163.099v-4.078H47.367zm0 12.233v4.077h163.099v-4.077H47.367zm0 12.232v4.078h163.099v-4.078H47.367zm0 12.232v4.079h163.099v-4.079H47.367zm0 12.232v4.078h163.212v-4.078H47.367zm0 12.233v4.077H80.1v-4.077H47.367z" opacity=".75"/><path fill="#FEE1C2" d="M131.712 185.369l-51.725 24.138 24.138-51.724 5.173-5.174 27.587 27.588-5.173 5.172z"/><path fill="#5D5D5D" d="M87.665 193.048l-7.678 16.459 16.46-7.678s1.628-.958.774-1.811c-.854-.856-3.425.022-3.425.022s1.708-2.602-.006-4.317c-1.715-1.715-4.317-.006-4.317-.006s.859-2.589-.003-3.451c-.862-.862-1.805.782-1.805.782z"/><path fill="#FFF" d="M104.125 157.783c3.449-3.448 9.483 6.035 4.311 11.207 8.621-8.622 20.69 3.448 12.069 12.069 5.173-5.172 14.656.862 11.207 4.31l86.909-86.909-27.587-27.587-86.909 86.91z"/><clipPath id="b"><path fill="#FFF" d="M104.125 157.783c3.449-3.448 9.483 6.035 4.311 11.207 8.621-8.622 20.69 3.448 12.069 12.069 5.173-5.172 14.656.862 11.207 4.31l86.909-86.909-27.587-27.587-86.909 86.91z"/></clipPath><g clip-path="url(#b)"><path fill="#37A6E6" d="M129.759 190.247l94.25-92.25-10.5-9.25-92.875 92.375 9.125 9.125z"/><path fill="#6DC7F1" d="M120.509 181.247l94.25-93.625-13.125-12.25-93 92.75 11.875 13.125z"/><path fill="#AEE3F8" d="M108.759 168.247l93.375-93-9-8.5-93.5 92.375 9.125 9.125z"/></g><path fill="#ECECEC" d="M46.76 41.87h63.25v64.25H46.76z"/><g opacity=".8"><path fill="#37A6E6" fill-rule="evenodd" d="M87.277 47.978c-3.982-1.453-8.061-1.845-12.019-1.477-4.59.363-6.831 1.784-6.698 1.527-7.505 2.68-13.85 8.443-16.79 16.525-5.232 14.395 2.18 30.315 16.553 35.554 14.378 5.241 30.273-2.181 35.506-16.574 5.236-14.396-2.176-30.312-16.552-35.555zM69.269 97.506a24.964 24.964 0 0 1-4.311-2.087c6.698.515 15.437-1.029 21.332-6.546 0 0 11.236-8.977 3.107-23.71 0 0 1.31 5.938-.36 10.822 0 0-1.593 6.643-8.675 8.572-10.43 2.842-22.315-4.459-27.283-7.995-.374-3.637-.042-7.393 1.291-11.057 1.975-5.432 5.688-9.67 10.224-12.516-1.134 7.935-.237 15.24 1.051 18.3 1.729 4.103 4.736 8.888 10.6 9.501 5.865.616 9.099-4.872 9.099-4.872 3.008-4.572 3.479-11.137 3.434-11.295-.046-.161-.802-.594-.802-.594-2.024 8.194-5.364 10.931-5.364 10.931-5.264 5.082-8.993 1.559-8.993 1.559-4.008-4.305-1.201-11.302-1.201-11.302 1.569-4.766 6.143-11.741 11.327-15.288.863.214 1.731.347 2.584.658a24.707 24.707 0 0 1 8.208 4.985c-3.79 1.384-9.91 4.309-9.91 4.309-9.7 4.085-10.355 10.265-10.355 10.265-1.004 6.368 4.05 3.672 4.05 3.672 5.201-2.533 7.756-10.428 7.756-10.428-1.623-.309-2.901.185-2.901.185-2.077 5.123-6.312 7.231-6.312 7.231-1.667.882-2.055-.676-2.055-.676-.281-1.169 1.206-1.369 1.206-1.369 2.307-.896 3.784-3.321 4.119-4.311.332-.995.951-1.072.951-1.072 3.163-1.009 6.047-1.234 6.047-1.234 3.927-.484 9.937 1.389 9.937 1.389 1.349.542 2.641.947 3.789 1.272 2.202 5.504 2.551 11.772.368 17.781-4.706 12.954-19.017 19.635-31.958 14.92z"/></g><g opacity=".4"><linearGradient id="c" x1=".517" x2=".517" y2="1"><stop offset="0%" stop-color="#fff"/><stop offset="12.5%" stop-opacity=".098" stop-color="#fff"/><stop offset="92.5%" stop-opacity=".098"/><stop offset="100%" stop-opacity=".498"/></linearGradient><path fill="none" stroke="url(#c)" stroke-linecap="round" stroke-linejoin="round" stroke-width="4.077" d="M165.685 11.947c74.055 0 84.639 10.557 84.639 84.544v59.251c0 73.986-10.584 84.543-84.639 84.543h-75.37c-74.055 0-84.639-10.557-84.639-84.543V96.491c0-73.987 10.584-84.544 84.639-84.544h75.37z" vector-effect="non-scaling-stroke"/></g></svg>

<svg xmlns="http://www.w3.org/2000/svg" style="isolation:isolate" width="256" height="256" viewBox="0 0 256 256">
 <defs>
  <filter id="msr9OgzJg1VovyWPHk4ikJki344ZwYoy" width="270.648" height="254.338" x="-7.32" y="2.95" filterUnits="userSpaceOnUse">
   <feGaussianBlur xmlns="http://www.w3.org/2000/svg" in="SourceGraphic" stdDeviation="4.294"/>
   <feOffset xmlns="http://www.w3.org/2000/svg" dx="0" dy="4" result="pf_100_offsetBlur"/>
   <feFlood xmlns="http://www.w3.org/2000/svg" flood-opacity=".4"/>
   <feComposite xmlns="http://www.w3.org/2000/svg" in2="pf_100_offsetBlur" operator="in" result="pf_100_dropShadow"/>
   <feBlend xmlns="http://www.w3.org/2000/svg" in="SourceGraphic" in2="pf_100_dropShadow" mode="normal"/>
  </filter>
 </defs>
 <g filter="url(#msr9OgzJg1VovyWPHk4ikJki344ZwYoy)">
  <path fill="#ECECEC" d="M 165.685 11.947 C 239.74 11.947 250.324 22.504 250.324 96.491 L 250.324 155.742 C 250.324 229.728 239.74 240.285 165.685 240.285 L 90.315 240.285 C 16.26 240.285 5.676 229.728 5.676 155.742 L 5.676 96.491 C 5.676 22.504 16.26 11.947 90.315 11.947 L 165.685 11.947 Z"/>
 </g>
 <g>
  <g opacity=".75">
   <path fill="#CDCDCD" d="M 47.367 46.408 L 47.367 50.486 L 210.466 50.486 L 210.466 46.408 L 47.367 46.408 Z M 47.367 58.641 L 47.367 62.718 L 210.466 62.718 L 210.466 58.641 L 47.367 58.641 Z M 47.367 70.873 L 47.367 74.951 L 210.466 74.951 L 210.466 70.873 L 47.367 70.873 Z M 47.367 83.106 L 47.367 87.183 L 210.466 87.183 L 210.466 83.106 L 47.367 83.106 Z M 47.367 95.339 L 47.367 99.416 L 210.466 99.416 L 210.466 95.339 L 47.367 95.339 Z M 47.367 107.571 L 47.367 111.648 L 210.466 111.648 L 210.466 107.571 L 47.367 107.571 Z M 47.367 119.803 L 47.367 123.881 L 210.466 123.881 L 210.466 119.803 L 47.367 119.803 Z M 47.367 132.035 L 47.367 136.113 L 210.466 136.113 L 210.466 132.035 L 47.367 132.035 Z M 47.367 144.268 L 47.367 148.346 L 210.466 148.346 L 210.466 144.268 L 47.367 144.268 Z M 47.367 156.501 L 47.367 160.578 L 210.466 160.578 L 210.466 156.501 L 47.367 156.501 Z M 47.367 168.733 L 47.367 172.811 L 210.466 172.811 L 210.466 168.733 L 47.367 168.733 Z M 47.367 180.965 L 47.367 185.044 L 210.466 185.044 L 210.466 180.965 L 47.367 180.965 Z M 47.367 193.197 L 47.367 197.275 L 210.579 197.275 L 210.579 193.197 L 47.367 193.197 Z M 47.367 205.43 L 47.367 209.507 L 80.1 209.507 L 80.1 205.43 L 47.367 205.43 Z"/>
  </g>
  <g>
   <path fill="#FEE1C2" d="M 131.712 185.369 L 79.987 209.507 L 104.125 157.783 L 109.298 152.609 L 136.885 180.197 L 131.712 185.369 Z"/>
   <path fill="#5D5D5D" d="M 87.665 193.048 L 79.987 209.507 L 96.447 201.829 C 96.447 201.829 98.075 200.871 97.221 200.018 C 96.367 199.162 93.796 200.04 93.796 200.04 C 93.796 200.04 95.504 197.438 93.79 195.723 C 92.075 194.008 89.473 195.717 89.473 195.717 C 89.473 195.717 90.332 193.128 89.47 192.266 C 88.608 191.404 87.665 193.048 87.665 193.048 Z"/>
   <path fill="#FFFFFF" d="M 104.125 157.783 C 107.574 154.335 113.608 163.818 108.436 168.99 C 117.057 160.368 129.126 172.438 120.505 181.059 C 125.678 175.887 135.161 181.921 131.712 185.369 L 218.621 98.46 L 191.034 70.873 L 104.125 157.783 Z"/>
   <clipPath id="_clipPath_chdKYDqQdg8gVmwVaKRNXIXXvlLDgY1X">
    <path fill="#FFFFFF" d="M 104.125 157.783 C 107.574 154.335 113.608 163.818 108.436 168.99 C 117.057 160.368 129.126 172.438 120.505 181.059 C 125.678 175.887 135.161 181.921 131.712 185.369 L 218.621 98.46 L 191.034 70.873 L 104.125 157.783 Z"/>
   </clipPath>
   <g clip-path="url(#_clipPath_chdKYDqQdg8gVmwVaKRNXIXXvlLDgY1X)">
    <path fill="#37A6E6" d="M 129.759 190.247 L 224.009 97.997 L 213.509 88.747 L 120.634 181.122 L 129.759 190.247 Z"/>
    <path fill="#6DC7F1" d="M 120.509 181.247 L 214.759 87.622 L 201.634 75.372 L 108.634 168.122 L 120.509 181.247 Z"/>
    <path fill="#AEE3F8" d="M 108.759 168.247 L 202.134 75.247 L 193.134 66.747 L 99.634 159.122 L 108.759 168.247 Z"/>
   </g>
  </g>
  <rect fill="#ECECEC" width="63.25" height="64.25" x="46.76" y="41.87" transform="matrix(1,0,0,1,0,0)"/>
  <g opacity=".8">
   <path fill="#37A6E6" fill-rule="evenodd" d="M 87.277 47.978 C 83.295 46.525 79.216 46.133 75.258 46.501 C 70.668 46.864 68.427 48.285 68.56 48.028 C 61.055 50.708 54.71 56.471 51.77 64.553 C 46.538 78.948 53.95 94.868 68.323 100.107 C 82.701 105.348 98.596 97.926 103.829 83.533 C 109.065 69.137 101.653 53.221 87.277 47.978 L 87.277 47.978 Z M 69.269 97.506 C 67.737 96.945 66.306 96.232 64.958 95.419 C 71.656 95.934 80.395 94.39 86.29 88.873 C 86.29 88.873 97.526 79.896 89.397 65.163 C 89.397 65.163 90.707 71.101 89.037 75.985 C 89.037 75.985 87.444 82.628 80.362 84.557 C 69.932 87.399 58.047 80.098 53.079 76.562 C 52.705 72.925 53.037 69.169 54.37 65.505 C 56.345 60.073 60.058 55.835 64.594 52.989 C 63.46 60.924 64.357 68.229 65.645 71.289 C 67.374 75.392 70.381 80.177 76.245 80.79 C 82.11 81.406 85.344 75.918 85.344 75.918 C 88.352 71.346 88.823 64.781 88.778 64.623 C 88.732 64.462 87.976 64.029 87.976 64.029 C 85.952 72.223 82.612 74.96 82.612 74.96 C 77.348 80.042 73.619 76.519 73.619 76.519 C 69.611 72.214 72.418 65.217 72.418 65.217 C 73.987 60.451 78.561 53.476 83.745 49.929 C 84.608 50.143 85.476 50.276 86.329 50.587 C 89.466 51.73 92.214 53.454 94.537 55.572 C 90.747 56.956 84.627 59.881 84.627 59.881 C 74.927 63.966 74.272 70.146 74.272 70.146 C 73.268 76.514 78.322 73.818 78.322 73.818 C 83.523 71.285 86.078 63.39 86.078 63.39 C 84.455 63.081 83.177 63.575 83.177 63.575 C 81.1 68.698 76.865 70.806 76.865 70.806 C 75.198 71.688 74.81 70.13 74.81 70.13 C 74.529 68.961 76.016 68.761 76.016 68.761 C 78.323 67.865 79.8 65.44 80.135 64.45 C 80.467 63.455 81.086 63.378 81.086 63.378 C 84.249 62.369 87.133 62.144 87.133 62.144 C 91.06 61.66 97.07 63.533 97.07 63.533 C 98.419 64.075 99.711 64.48 100.859 64.805 C 103.061 70.309 103.41 76.577 101.227 82.586 C 96.521 95.54 82.21 102.221 69.269 97.506 L 69.269 97.506 Z"/>
  </g>
 </g>
 <g opacity=".4">
  <linearGradient id="_lgradient_170" x1=".517" x2=".517" y1="0" y2="1">
   <stop offset="0%" style="stop-color:rgb(255,255,255)"/>
   <stop offset="12.5%" stop-opacity=".098" style="stop-color:rgb(255,255,255)"/>
   <stop offset="92.5%" stop-opacity=".098" style="stop-color:rgb(0,0,0)"/>
   <stop offset="100%" stop-opacity=".498" style="stop-color:rgb(0,0,0)"/>
  </linearGradient>
  <path fill="none" stroke="url(#_lgradient_170)" stroke-linecap="round" stroke-linejoin="round" stroke-width="4.077" d="M 165.685 11.947 C 239.74 11.947 250.324 22.504 250.324 96.491 L 250.324 155.742 C 250.324 229.728 239.74 240.285 165.685 240.285 L 90.315 240.285 C 16.26 240.285 5.676 229.728 5.676 155.742 L 5.676 96.491 C 5.676 22.504 16.26 11.947 90.315 11.947 L 165.685 11.947 Z" vector-effect="non-scaling-stroke"/>
 </g>
</svg>
